assets/ico-github.svg

<svg aria-hidden="true" width="22" height="28" viewBox="0 0 22 28" fill="none" xmlns="http://www.w3.org/2000/svg">
	<path class="socials__item-link__image" d="M15.7645 21.0283C15.7577 21.373 15.7509 21.7176 15.7509 22.0622C15.7509 23.8787 15.7441 25.6953 15.7577 27.5118C15.7577 27.7918 15.71 27.9067 15.4104 27.8995C13.3131 27.8851 11.2158 27.8851 9.11851 27.8995C8.85294 27.8995 8.76442 27.8205 8.77123 27.5333C8.78484 26.5281 8.77803 25.5229 8.77123 24.5249C8.77123 24.4316 8.88018 24.2521 8.65546 24.2449C8.6078 24.2449 8.56694 24.2521 8.51928 24.2521C8.43075 24.209 8.34904 24.2162 8.29456 24.3167C7.45019 24.4101 6.59901 24.4819 5.76145 24.2593C4.27699 23.8644 3.21472 22.9382 2.56101 21.4663C2.13883 20.5042 1.58046 19.6139 0.933558 18.7954C0.729275 18.5369 0.402422 18.4364 0.18452 18.1779C0.102807 18.0774 -0.033382 17.9984 0.00747466 17.862C0.0483313 17.6969 0.218567 17.7041 0.354756 17.6897C1.71664 17.5676 2.68358 18.2497 3.35772 19.4272C3.97738 20.5042 4.7877 21.3012 5.95893 21.6243C6.78968 21.854 7.62043 21.8038 8.43756 21.5381C8.62823 21.4735 8.73037 21.3873 8.7508 21.1432C8.81208 20.2529 8.98913 19.3913 9.57474 18.6374C9.35003 18.5944 9.17298 18.5513 8.98913 18.5226C7.54552 18.2928 6.20407 17.7687 5.03965 16.8281C3.73905 15.7798 2.92872 14.3798 2.67678 12.6638C2.45887 11.1632 2.54059 9.6554 2.72444 8.15481C2.86744 6.99885 3.17386 5.90032 3.96376 5.03874C4.24295 4.73718 4.26337 4.49307 4.14081 4.11253C3.72543 2.83451 3.84119 1.54932 4.21571 0.271296C4.2838 0.0343602 4.38594 -0.0374388 4.63108 0.0271802C5.55036 0.264116 6.25854 0.831327 6.89863 1.5206C7.21186 1.85087 7.47743 2.22422 7.73619 2.59758C7.81109 2.70528 7.86557 2.76272 7.99495 2.65502C8.48523 2.24576 9.07765 2.11653 9.67007 2.02319C11.386 1.76471 13.1088 1.75753 14.8248 2.01601C15.3968 2.10217 15.9756 2.20986 16.4523 2.5904C16.677 2.7699 16.7655 2.66938 16.8881 2.4827C17.3443 1.77907 17.9027 1.17596 18.5564 0.680549C18.9718 0.364635 19.4348 0.149238 19.9387 0.0200004C20.1566 -0.0374386 20.2451 0.0271803 20.3132 0.235397C20.7763 1.61393 20.8444 2.99247 20.3268 4.37101C20.2656 4.54333 20.2247 4.66538 20.3745 4.81616C21.2121 5.64903 21.607 6.71165 21.7704 7.88197C21.9679 9.30359 22.0837 10.7324 21.9271 12.1755C21.6683 14.6023 20.4971 16.3686 18.4679 17.5246C18.393 17.5174 18.3317 17.5389 18.3044 17.6179C18.25 17.6466 18.1955 17.6753 18.1478 17.6969C17.9708 17.7041 17.821 17.783 17.6984 17.9051C17.6439 17.9266 17.5826 17.941 17.5282 17.9625C17.4465 17.941 17.392 17.9769 17.3579 18.0487C17.3239 18.0559 17.283 18.0702 17.249 18.0774C16.9766 18.1205 16.7042 18.1564 16.4727 18.3287C16.4387 18.3359 16.3978 18.3431 16.3638 18.3502C16.1663 18.3431 15.9688 18.3574 15.7986 18.4867C15.6488 18.5082 15.5058 18.5297 15.356 18.5513C15.2402 18.5585 15.1108 18.5441 15.0087 18.5872C14.8997 18.6374 14.9474 18.7092 15.0427 18.738L15.0495 18.7451C15.0563 18.8457 15.104 18.9174 15.1925 18.9462C15.247 19.061 15.3015 19.1759 15.356 19.2836C15.3696 19.4344 15.3968 19.578 15.5194 19.6785C15.533 19.7431 15.5466 19.8006 15.5602 19.8652C15.5943 20.0662 15.5943 20.2673 15.7032 20.4468C15.71 20.4898 15.7169 20.5329 15.7237 20.5688C15.6828 20.655 15.7032 20.734 15.7645 20.8058C15.7577 20.8847 15.7577 20.9565 15.7645 21.0283Z" fill="#e20076"/>
</svg>

<svg aria-hidden="true" width="22" height="28" fill="none" xmlns="http://www.w3.org/2000/svg"><path class="socials__item-link__image" d="M15.764 21.028c-.006.345-.013.69-.013 1.034 0 1.817-.007 3.633.007 5.45 0 .28-.048.395-.348.387a458.198 458.198 0 00-6.291 0c-.266 0-.355-.079-.348-.366.014-1.005.007-2.01 0-3.008 0-.093.11-.273-.116-.28-.047 0-.088.007-.136.007-.088-.043-.17-.036-.224.065-.845.093-1.696.165-2.534-.058-1.484-.395-2.546-1.32-3.2-2.793a12.28 12.28 0 00-1.627-2.67c-.205-.26-.532-.36-.75-.618-.081-.1-.217-.18-.177-.316.041-.165.212-.158.348-.172 1.362-.122 2.329.56 3.003 1.737.62 1.077 1.43 1.874 2.6 2.197.832.23 1.662.18 2.48-.086.19-.064.292-.15.313-.395.061-.89.238-1.752.824-2.506-.225-.043-.402-.086-.586-.114-1.443-.23-2.785-.754-3.95-1.695-1.3-1.048-2.11-2.448-2.362-4.164-.218-1.5-.136-3.009.047-4.51C2.867 7 3.174 5.9 3.964 5.04c.279-.302.3-.546.177-.926-.416-1.278-.3-2.564.075-3.842.068-.237.17-.308.415-.244.92.237 1.628.804 2.268 1.494.313.33.578.703.837 1.077.075.107.13.165.259.057.49-.41 1.083-.538 1.675-.632a17.23 17.23 0 015.155-.007c.572.086 1.15.194 1.627.574.225.18.313.08.436-.107A7.073 7.073 0 0118.556.68 3.826 3.826 0 0119.94.02c.218-.057.306.007.374.215.463 1.379.531 2.757.014 4.136-.061.172-.102.294.047.445.838.833 1.233 1.896 1.396 3.066.198 1.422.314 2.85.157 4.293-.259 2.427-1.43 4.194-3.46 5.35-.074-.008-.135.014-.163.093a3.083 3.083 0 01-.156.079.667.667 0 00-.45.208c-.054.022-.115.036-.17.057-.081-.021-.136.015-.17.087-.034.007-.075.021-.109.028-.272.043-.545.08-.776.252l-.11.021c-.197-.007-.394.007-.564.137l-.443.064c-.116.008-.245-.007-.347.036-.11.05-.062.122.034.151l.007.007c.006.1.054.172.143.201.054.115.109.23.163.338.014.15.04.294.163.395.014.064.028.122.041.186.034.201.034.402.143.582l.02.122c-.04.086-.02.165.041.237a1.37 1.37 0 000 .222z" fill="#e20076"/></svg>
